client/resources/images/app-icons/triangle_left_stop_outline.svg

<svg xmlns="http://www.w3.org/2000/svg" width="16" height="16" viewBox="0 0 16 16">
 <path style="fill:#4f4c4d" 
       d="M 4 3 C 3.446 3 3 3.446 3 4 L 3 12 C 3 12.554 3.446 13 4 13 L 5 13 C 5.554 13 6 12.554 6 12 L 6 8.9140625 L 12.230469 12.919922 A 0.50005 0.50005 0 0 0 13 12.5 L 13 3.5 A 0.50005 0.50005 0 0 0 12.484375 3 A 0.50005 0.50005 0 0 0 12.230469 3.0800781 L 6 7.0859375 L 6 4 C 6 3.446 5.554 3 5 3 L 4 3 z M 4 3.8300781 L 5 3.8300781 L 5 12 L 4 12 L 4 3.8300781 z M 12 4.4140625 L 12 11.585938 L 6.421875 8 L 12 4.4140625 z "
       />
</svg>

<svg xmlns="http://www.w3.org/2000/svg" width="16" height="16"><path d="M4 3a1 1 0 0 0-1 1v8a1 1 0 0 0 1 1h1a1 1 0 0 0 1-1V8.914l6.23 4.006a.5.5 0 0 0 .77-.42v-9a.5.5 0 0 0-.77-.42L6 7.086V4a1 1 0 0 0-1-1H4zm0 .83h1V12H4V3.83zm8 .584v7.172L6.422 8 12 4.414z" fill="#4f4c4d"/></svg>
